X: 14
T: SCOTTISH SIMPLE DE GUEMENE
M: 4/4
L: 1/8
Q:1/4=80
K:G
|G/2A/2B/2c/2dg ef/2e/2dg/2d/2|cB/2A/2Bd e/2d/2c/2B/2A2|G/2A/2B/2c/2dg e
f/2e/2dg/2d/2|cB/2A/2Bd c/2B/2A/2F/2G2|
B3/2A/2B2 F/2G/2A/2B/2d2|g3/2e/2fe e/2c/2e/2f/2ed|B3/2A/2B2 F/2G/2A/2B/2
d2|g3/2e/2fe d/2c/2B/2A/2G2|
